X: 1
M: 4/4
L: 1/8
R: Hornpipe
K: Gmaj
(3DEF | G>F G>A (3BAG A>B | c>B c>e  d2 (3def | \
g>d B>G c>e d>c | (3BAG A>F D>E F>D |
G>F G>A (3BAG A>B | c>B c>e d2 (3def | \
g>d B>G c>A F>D| G2 (3FGA G2 :|
D2 | G>B (3def g>d B>g | (3fed e>^c d2 (3ded | \
g>d B>G c>e d>c | (3BAG A>F D>E F>D | 
G>F G>A (3BAG A>B | c>B c>e d2 (3def | \
g>d B>G c>A F>D | G2 (3FGA G2 :|